X: 162
T:Fandango para Leirado
M:3/8
L:1/16
Q:60
C:X. Freijeiro
R:Fandango
K:C
CDEF | G4 G2 | c2B2A2 | G2AGF- | F2 DEFG | A3GF2 | 
A2G2F2 | A4G2- | G2CDEF | G4 G2 | c2B2A2 | G2AGF- |
F2FGAB | G3EG2 | A3cB2 | c6- |
K:CMin
c2CDEF | G4G2 | 
c2B2A2 | G2AGF- | F2DEFG | A3GF2 | A2G2F2 | A4G2- |
G2 CDEF | G4 G2 | c2B2A2 | G2AGF2- | F2FGAB | G3EG2|
A3c=B2 |c6- |
K:C
c3CD2 | E3DC2 | E2F2G2 | E3DC2 | 
E2F2G2 | D3CB,2| F2G2A2 | E3DC2- | C3CD2| E3DC2 |
E2F2G2 | E3DC2 | E2F2G2 | D3CB,2| D2E2D2 |C6- |
K:CMin
| C3CD2 | E3DC2 | EDEFGF | EFEDC2 | EDEFGE | DEDC=B,2 |
FEFGA2 |GAGFED | EDC=B,CD | E3DC2 | EDEFGF | EFEDC2 |
EDEFGE | DEDC=B,2| DCDEFD | C6- | 
K:C
| C2 ||

